img/svg/nut.svg

<?xml version="1.0" encoding="iso-8859-1"?>
<!-- Generator: Adobe Illustrator 16.0.0, SVG Export Plug-In . SVG Version: 6.00 Build 0)  -->
<!DOCTYPE svg PUBLIC "-//W3C//DTD SVG 1.1//EN" "http://www.w3.org/Graphics/SVG/1.1/DTD/svg11.dtd">
<svg version="1.1" id="Capa_1" xmlns="http://www.w3.org/2000/svg" xmlns:xlink="http://www.w3.org/1999/xlink" x="0px" y="0px"
	 width="48.352px" height="48.352px" viewBox="0 0 48.352 48.352" style="enable-background:new 0 0 48.352 48.352;"
	 xml:space="preserve">
<g>
	<g>
		<g>
			<circle cx="24.178" cy="24.176" r="4.167"/>
			<path d="M47.369,20.046l-5.824-1.092c-0.354-1.178-0.818-2.308-1.393-3.371l3.37-4.927c0.312-0.456,0.247-1.142-0.144-1.532
				l-4.155-4.156c-0.391-0.391-1.076-0.454-1.53-0.143l-4.93,3.372c-1.094-0.59-2.259-1.063-3.474-1.42l-1.086-5.794
				C28.101,0.44,27.573,0,27.019,0h-5.876c-0.553,0-1.082,0.44-1.185,0.983L18.86,6.834c-1.165,0.356-2.282,0.82-3.334,1.392
				L10.66,4.897C10.204,4.585,9.518,4.649,9.128,5.04L4.972,9.196c-0.391,0.391-0.454,1.076-0.143,1.532l3.35,4.896
				c-0.564,1.052-1.021,2.168-1.371,3.331l-5.824,1.091c-0.542,0.103-0.982,0.632-0.982,1.185v5.876c0,0.553,0.44,1.082,0.982,1.186
				l5.82,1.091c0.355,1.188,0.823,2.328,1.401,3.399l-3.312,4.842c-0.312,0.456-0.248,1.142,0.143,1.531l4.155,4.155
				c0.391,0.392,1.076,0.454,1.532,0.145l4.84-3.313c1.041,0.563,2.146,1.021,3.299,1.375l1.097,5.853
				c0.103,0.543,0.632,0.981,1.185,0.981h5.877c0.554,0,1.081-0.438,1.185-0.981l1.087-5.795c1.2-0.354,2.354-0.821,3.438-1.401
				l4.901,3.354c0.456,0.312,1.142,0.248,1.532-0.145l4.153-4.153c0.393-0.392,0.455-1.075,0.145-1.532l-3.335-4.873
				c0.589-1.084,1.062-2.237,1.423-3.44l5.819-1.091c0.541-0.104,0.98-0.633,0.98-1.186v-5.876
				C48.353,20.678,47.912,20.149,47.369,20.046z M24.178,34.261c-5.568,0-10.083-4.515-10.083-10.086
				c0-5.567,4.515-10.083,10.083-10.083c5.57,0,10.086,4.516,10.086,10.083C34.264,29.746,29.746,34.261,24.178,34.261z"/>
		</g>
	</g>
</g>
<g>
</g>
<g>
</g>
<g>
</g>
<g>
</g>
<g>
</g>
<g>
</g>
<g>
</g>
<g>
</g>
<g>
</g>
<g>
</g>
<g>
</g>
<g>
</g>
<g>
</g>
<g>
</g>
<g>
</g>
</svg>

<?xml version="1.0" encoding="UTF-8" standalone="no"?>
<!DOCTYPE svg PUBLIC "-//W3C//DTD SVG 1.1//EN" "http://www.w3.org/Graphics/SVG/1.1/DTD/svg11.dtd">
<svg width="100%" height="100%" viewBox="0 0 48 48" version="1.1" xmlns="http://www.w3.org/2000/svg" xmlns:xlink="http://www.w3.org/1999/xlink" xml:space="preserve" xmlns:serif="http://www.serif.com/" style="fill-rule:evenodd;clip-rule:evenodd;stroke-linejoin:round;stroke-miterlimit:2;">
    <g>
        <circle cx="24.178" cy="24.176" r="4.167" style="fill:rgb(103,253,196);"/>
        <path d="M47.369,20.046L41.545,18.954C41.191,17.776 40.727,16.646 40.152,15.583L43.522,10.656C43.834,10.2 43.769,9.514 43.378,9.124L39.223,4.968C38.832,4.577 38.147,4.514 37.693,4.825L32.763,8.197C31.669,7.607 30.504,7.134 29.289,6.777L28.203,0.983C28.101,0.44 27.573,0 27.019,0L21.143,0C20.59,0 20.061,0.44 19.958,0.983L18.86,6.834C17.695,7.19 16.578,7.654 15.526,8.226L10.66,4.897C10.204,4.585 9.518,4.649 9.128,5.04L4.972,9.196C4.581,9.587 4.518,10.272 4.829,10.728L8.179,15.624C7.615,16.676 7.158,17.792 6.808,18.955L0.984,20.046C0.442,20.149 0.002,20.678 0.002,21.231L0.002,27.107C0.002,27.66 0.442,28.189 0.984,28.293L6.804,29.384C7.159,30.572 7.627,31.712 8.205,32.783L4.893,37.625C4.581,38.081 4.645,38.767 5.036,39.156L9.191,43.311C9.582,43.703 10.267,43.765 10.723,43.456L15.563,40.143C16.604,40.706 17.709,41.164 18.862,41.518L19.959,47.371C20.062,47.914 20.591,48.352 21.144,48.352L27.021,48.352C27.575,48.352 28.102,47.914 28.206,47.371L29.293,41.576C30.493,41.222 31.647,40.755 32.731,40.175L37.632,43.529C38.088,43.841 38.774,43.777 39.164,43.384L43.317,39.231C43.71,38.839 43.772,38.156 43.462,37.699L40.127,32.826C40.716,31.742 41.189,30.589 41.55,29.386L47.369,28.295C47.91,28.191 48.349,27.662 48.349,27.109L48.349,21.233C48.353,20.678 47.912,20.149 47.369,20.046ZM24.178,34.261C18.61,34.261 14.095,29.746 14.095,24.175C14.095,18.608 18.61,14.092 24.178,14.092C29.748,14.092 34.264,18.608 34.264,24.175C34.264,29.746 29.746,34.261 24.178,34.261Z" style="fill:rgb(103,253,196);fill-rule:nonzero;"/>
    </g>
</svg>
